X:1
T:SONATA in Si minore
T:per Violino e Basso continuo F. XIII no. 44 
T:Antonio Vivaldi (1678-1741) 
%%score 1 { ( 2 4 ) | ( 3 5 ) }
L:1/8
Q:1/4=50
M:3/4
K:D
V:1 treble nm="Violin" snm="Vln."
V:2 treble nm="Harpsichord" snm="Hch."
V:4 treble 
V:3 bass 
V:5 bass 
V:1
"^Largo""^Preludio"!p! B>f (d>B) (b>f) | (3(gfe) f2 z2 | e>g (c>e) (^A>f) | (3(dcB) b2 z2 | %4
 f>b (f>d) (b>d) | (3(edc) a2 z2 | e>a (e>c) (a>c) | (3(dcB) g2 z2 | d>g (d>B) (g>f) | %9
 e2- e>g f>e | (3(^dcB) (3(agf) (3(fed) | (3(^dcB) (3(fed) (3(agf) | (3(gfe) (3(=c'ba) (3(gfe) | %13
 (3(^dcB) A3 f | (3(gfe) !trill(!T^d3 !trill)!e | e6 ::!p! e>b (g>e) (b>a) | (3(^gfe) d'3 c' | %18
 (b>a) (3(^gfe) (3(d=cB) | (3(=cBA) a3 !courtesy!=g | (3(fga) (3(fed) (3(=cBA) | %21
 (3(BAG) (3(d=cB) (3(gab) | (3(cBA) a3 g | (3(fed) Tc3 d | d2- (3(dde) (3(fga) | %25
 (3(^dcB) (3(fed) (3(agf) | g2- (3(gef) (3(gab) | (3(cBA) (3(edc) (3(gfe) | f2 (3z (fe) (3(dcB) | %29
 (3(=cBc) (3(ede) (3(gfg) | (3(^Ace) (3(gfe) (3(^a^gf) | (3(bag) (3(fed) (3(cBc) | B2 z f (3(bfe) | %33
 (3(dcB) b2 (3z (fe) | (3(dcB) b2 (3z (fe) | (3(dcB) (3(FBc) (3(FB^A) | !fermata!B,6 :: %37
[M:4/4][Q:1/4=110]"^Allegro""^Allemanda" z4 z2 z!f! B | f(e/d/) cB ^AB z B | Tf(e/d/) cB ^AF z f | %40
 b/(f/d/f/) b/(f/e/f/) (g/f/)g z/ (e/d/e/) | a/(e/c/e/) a/(e/d/e/) (f/e/)f z/ (d/c/d/) | %42
 g/(d/B/d/) g/(d/c/d/) (e/d/)e z/ (c/B/c/) | f/(c/^A/c/) f/(c/B/c/) (d/c/)B z b | %44
 (f/e/d/c/ B)b (f/e/d/c/ B)b | =ce^A^c (e/g/f/)e/ (^a/^g/f/)e/ | %46
 (b/!courtesy!=a/!courtesy!=g/)f/ e/d/c/B/ Ff (e/d/c/)B/ | Ff (e/d/c/)B/ ^abFa | %48
 b2 z/ (B/d/f/) (b>a) (g/f/e/d/) | cA A,/(A/c/e/) (a>g) (f/e/d/c/) | %50
 BG G,/(G/B/d/) (Tg>f) (e/d/c/B/) | c/(A/B/c/) d/(A/d/f/) e/(A/e/g/) f/(A/f/a/) | %52
 (g>f) (e/d/c/B/) (g>f) (e/d/c/B/) | A2- A/(c/d/e/) G2- G/(c/d/e/) | FdA,c d3 z :: z4 z2 z!f! d | %56
 a(g/f/) ed cd z d | a(g/f/) ed (c/B/)A z e | b(a/g/) fe ^de z e | b(a/g/) fe (^d/c/)B z B | %60
 (=c/B/)(e/B/) (c/B/)(e/B/) (c/A/)(a/f/) (g/e/)(b/f/) | (g/e/)(b/e/) T^d>e e2 z e/f/ | %62
 gece (F^Ae)f | gece (F^Ae)f | gece (d/c/)B z f | (g/f/g/)a/ g/a/b/a/ (^g/f/g/)a/ g/a/f/g/ | %66
 (a/^g/a/)b/ a/b/c'/b/ (^a/g/a/)b/ a/b/g/a/ | (bf)(c'f) (d'b)(=c'^a) | (bf)(d'b) (=c'^a)(b^c') | %69
 e2- e/f/e/^d/ (e/g/e/)d/ e/f/e/d/ | (e/g/e/)^d/ e/d'/c'/b/ (^a/b/c'/)b/ a/^g/f/e/ | dbf^a b2 z f | %72
 (g/f/)(b/f/) (g/f/)(b/f/) (g/f/e/)d/ e/d/=c/B/ | %73
 (=c/B/)(e/B/) (c/B/)(e/B/) F2- F/(!courtesy!^c/d/e/) | ^A/(c/d/e/) F/(c/d/e/) E2- E/(G/F/E/) | %75
 DBC^A B,3 z ::[M:3/4]"^Corrente"[Q:1/4=144]"^Allegro" z!mf! f Bf Bf | Bf Bf Bf | (Bg f)e dc | %79
 Bf Bf Bf | (Bg f)e dc | (Bf e)d cB | ^a3 ^g f2 | z f Bf Bf | bf Bf Bf | !courtesy!=af Bf Bf | %86
 (ga b)e f!courtesy!=d | Ae Ae Ae | ae Ae Ae | ge Ae Ae | (fg a)d ec | (de f)c dA | (Bc d)A BF | %93
 (GA B)D EB, | (CE A)G FE | (FA d)c BA | (GB e)d cB | ce Ae Ae | ge Ae Ae | Ge Ae Ae | (FA d)F ED | %101
 (A,E d)c Gc | d6 :: z!mf! a da da | da da da | (db a)g fe | da da da | (db a)g fe | (df e)d cB | %109
 Ad Fd Fd | ^Ed Ed Ed | ^Ec Ec Ec | ^EB EB EB | Af Af Af | Bf Bf Bf | cf cf c^e | %116
 f2 z f !courtesy!=ga | ^da da ca | (Ba b)a gf | g2 z e fg | cg cg Bg | (Ag a)g fe | f2 z d ef | %123
 Bf Bf Bf | (Bg f)e dc | Bf Bf Bf | (Bg f)e dc | (Bf e)d cB | (eg f)e dc | (fa g)f ed | %130
 (gb a)g fe | (^ac' b)a ^gf | d'2 z ^a bf | ed Tc3 B | (Bf e)d cB | (bf e)d cB | (bf e)d cB | %137
 ^a3 f bf | ed Tc3 B | B6 :| %140
V:2
!p! [DFB]4 [Fd]2 | [Gc]2 [FB]2 z2 | [E^A]2 F2 [Ec]2 | [DFB]4 z2 | F2 B2 F2 | [EA]4 z2 | E2 A2 E2 | %7
 [DG]4 z2 | d6 | ^A2 c2 A2 | [^DFB]6 | ^d6 | [GB]2 [E=c]4 | [^DF]4 [B,FA]2 | [B,G][CF] F4 | %15
 [G,B,E]6 ::!p! E2 G2 [EB]2 | [B,^G]2 B2 d2 | B2 ^G2 E2 | =c2 e4 | [DFA]6 | [DGB]6 | %22
 [CEA]4 [A,E]2 | [A,F][B,E] [CE]4 | D4 z2 | [^DF]6 | [B,G]4 z2 | [CE]6 | [A,F]4 z2 | =c4 B2 | %30
 [C^A]2 c4 | B4 F2- | F4 z2 | d2 B2 [CF]2 | D2 B,2 C2 | DC C4 | !fermata!B,6 ::[M:4/4] z8 | %38
 z4 z B,FD | CB, z2 z FDE | F2 dB G2 B2 | A2 E2 F2 A2 | G2 z D E2 G2 | F2 C2 DFBd | f2 z2 d2 B2 | %45
 [G=c]2 [C^A]2 [EB]2 e2 | [B,F]2 [B,G]2 [^A,C]2 z2 | [^A,C]2 z2 FBB^A | [DFB]2 F2 [FBd]2 z2 | %49
 [EAc]2 E2 [CEA]2 z2 | [GBd]2 [Gdg]2 [dgb]2 z2 | CE A6 | [B,G]2 z2 GF E2 | A4 G4 | [DF]2 E2 D3 z :: %55
 z8 | z4 z DAF | EDCD E2 z B- | [EB][Gc][CA][B,G] [^DF]ED[B,-G] | [B,F]E z c ^dB [EG]2 | %60
 =cBcB cA B2- | Be [^DF]2 [B,E]2 z2 | [EG]2 z2 [CF]2 z2 | [EG]2 z2 [CF]2 z2 | [EG]2 z2 [DF]2 z2 | %65
 [GBe]2 [GBe]2 [^GBe]2 [GBe]2 | [Ae]2 [Ae]2 [F^Ac]2 [FAc]2 | [FB]2 [Fc]2 [Fd]2 [G=c][E^A] | %68
 [DB]FDB, [=CG][^A,^C] [B,F]2 | c4 c4 | [cf]2 F2 [cf]2 F2 | [Fd]2 c2 [DFB]2 z2 | GFGF EDEF | %73
 =cB c/B/A/G/ [^CF]2 ^c2 | f2 c2 [CF]2 c2 | B3 ^A [DFB]3 z ::[M:3/4]!mf! [DFB]6 | [DFB]6 | %78
 [DFB]2 G2 ^A2 | B2 A2 G2 | F2 G2 [E^A]2 | [DB]4 [B,G]2 | [^A,C]6 | B,2 z2 z2 | F2 E2 ^D2 | %85
 F2 E2 ^D2 | [G,B,E]4 z2 | A6 | A6 | A6 | A6 | d2 c2 d2 | B2 A2 B2 | G2 B4 | A4 c2 | A4 G2 | %96
 e4 d2 | c2 A2 c2 | e2 d2 c2 | e2 d2 c2 | d2 A2 B2 | E6 | D6 ::!mf! [DFA]6 | [DFA]6 | A2 B2 c2 | %106
 d2 c2 B2 | A2 B2 c2 | [DFd]2 B2 A2 | [DA]2 [CA]2 [DF]2 | =F2 ^F2 ^G2 | ^G6 | =F2 ^F2 ^G2 | F6 | %114
 F6 | ^G6 | [CA]6 | A4 c2 | B6 | [B,G]6 | G4 B2 | A2 d2 c2 | B4 ^A2 | B2 ^A2 d2 | B4 ^A2 | B6 | %126
 B4 ^A2 | B4 ^A2 | [EB]4 z2 | A6 | G2 B4 | ^A2 B2 e2 | d2 c2 B2 | B2 B2 ^A2 | B6 | F6 | %136
 [DB]2 F2 [B,G]2 | C4 F2 | G2 C4 | B,6 :| %140
V:3
 B,2 B,,2 B,2 | E,2 D,2 z2 | C2 ^A,2 F,2 | B,2 B,,2 z2 | D2 D,2 D2 | C2 C,2 z2 | C2 C,2 C2 | %7
 B,2 B,,2 z2 | B,2 B,,2 B,2 | C2 ^A,2 F,2 | B,2 B,,2 z2 | B,2 B,,2 z2 | E,2 A,,2 A,2 | %13
 B,2 B,,2 ^D,2 | E,A, B,2 B,,2 | E,6 :: G,2 B,2 E,2 | E,2 ^G,,2 z2 | ^G,2 E,2 G,2 | %19
 A,2 !courtesy!=C,2 z2 | D2 D,2 D2 | G,2 G,,2 G,2 | A,2 A,,2 C,2 | D,G, A,2 A,,2 | [F,A,]4 z2 | %25
 B,2 B,,2 B,2 | E,2 E,,2 z2 | A,2 A,,2 A,2 | D,2 D,,2 z2 | E,2 E,,2 E,2 | F,2 E,2 F,2 | %31
 D,2 E,2 F,2 | B,,2 B,2 z2 | B,,B, (3(D,C,B,,) ^A,,F,, | B,,B, (3(D,C,B,,) ^A,,F,, | %35
 B,,E, F,2 F,,2 | [D,F,]6 ::[M:4/4] z8 | z2 z!f! B,, F,(E,/D,/) C,B,, | %39
 ^A,,B,, z B,, F,(^G,/^A,/) B,C | DB, z B, EE,G,E | CC, z C DD,F,D | B,B,, z B, CC,E,C | %43
 ^A,F, z ^A,, B,,(B,/C/) DB, | B,,(B,/C/) DB, B,,(B,/C/) DD, | E,2 F,2 G,2 [C,^A,]2 | %46
 D,2 E,2 F,2 z2 | F,2 z2 F,(D,/E,/) F,F,, | B,,(B,/C/) DB, B,,2 z2 | A,,(A,/B,/) CA, A,,2 z2 | %50
 G,,(G,/A,/) B,G, G,,2 z G, | A,G,F,D, C,A,,DD, | E,2 z2 E,F,G,E, | C,D,C,B,, A,,B,,C,A,, | %54
 D,/E,/F,/G,/ A,A,, D,3 z :: z8 | z2 z!f! D, A,(G,/F,/) E,D, | C,D, z D, A,(B,/C/) B,A, | %58
 G,E, z E, B,(A,/G,/) F,E, | ^D,[E,G,] z A, B,(C/^D/) EG, | A,G,A,G, A,F,E,^D, | %61
 E,/F,/G,/A,/ B,B,, E,,(E,/F,/) G,E, | ^A,,2 z2 A,,2 z2 | ^A,,2 z2 A,,2 z2 | %64
 ^A,,2 z2 B,,(B,/C/) DB, | E,B,E,B, D,B,D,B, | C,CC,C F,CE,C | D,2 ^A,,2 B,,D,E,F, | %68
 G,D,B,,D, E,F, D,(C,/B,,/) | ^A,,F,A,,F, A,,F,A,,F, | ^A,,F,A,,F, A,,F,A,,F, | %71
 B,,/C,/D,/E,/ F,F,, B,,(B,/C/) DB, | E,D,E,D, E,F,G,D, | E,D, E,/D,/=C,/B,,/ ^A,,F,A,,F, | %74
 ^A,,F,A,,F, A,,F,A,,F, | B,,/C,/D,/E,/ F,F,, B,,3 z ::[M:3/4] B,,2 B,2 A,2 | G,2 F,2 E,2 | %78
 D,2 E,2 F,2 | G,2 F,2 E,2 | D,2 E,2 F,2 | G,2 F,2 E,2 | F,2 F,3 E, | [D,F,]2 C,2 B,,2 | %84
 ^D,2 C,2 B,,2 | ^D,2 C,2 B,,2 | E,4 z2 | C,2 B,,2 A,,2 | C,2 B,,2 A,,2 | C,2 B,,2 A,,2 | %90
 D,2 D2 C2 | B,2 A,2 F,2 | G,2 F,2 D,2 | E,2 D,2 ^G,,2 | A,,2 C,2 A,,2 | D,2 F,2 D,2 | %96
 G,2 ^G,2 E,2 | A,2 C2 A,2 | C,2 B,,2 A,,2 | C,2 B,,2 A,,2 | D,2 F,2 G,2 | A,2 A,,4 | [D,F,A,]6 :: %103
 D,2 D2 C2 | B,2 A,2 G,2 | F,2 G,2 A,2 | B,2 A,2 G,2 | F,2 G,2 A,2 | B,2 G,2 E,2 | F,2 E,2 D,2 | %110
 ^G,2 F,2 =F,2 | =F,2 ^D,2 C,2 | C,2 ^D,2 =F,2 | F,2 ^G,2 A,2 | ^G,2 F,2 G,2 | C,2 C2 C,2 | %116
 F,,2 F,2 E,2 | B,,2 B,2 A,2 | ^D,2 C,2 B,,2 | E,,2 E,2 D,2 | A,,2 A,2 G,2 | C,2 B,,2 A,,2 | %122
 D,2 B,,2 C,2 | D,2 C,2 B,,2 | D,2 E,2 F,2 | G,2 F,2 E,2 | D,2 E,2 F,2 | D,2 E,2 F,2 | G,4 z2 | %129
 D,2 E,2 F,2 | E,2 F,2 G,2 | F,2 ^G,2 ^A,2 | B,2 F,E, D,2 | E,2 F,2 F,,2 | B,,2 C,2 D,2 | %135
 B,,2 C,2 D,2 | B,,2 D,2 E,2 | F,3 E, D,2 | E,2 F,2 F,,2 | [B,,D,F,]6 :| %140
V:4
 x6 | x6 | x6 | x6 | F4 F2 | x6 | E4 E2 | x6 | G4 D2 | E6 | x6 | F4 A2 | x6 | x6 | x2 E2 ^D2 | %15
 x6 :: x6 | x2 E4 | E6 | E4 z2 | x6 | x6 | x6 | x6 | x6 | x6 | x6 | x6 | x6 | G6 | x2 F2 C2 | %31
 F2 G2 [^A,C]2 | [B,D]4 x2 | F4 x2 | x6 | x2 B,2 ^A,2 | x6 ::[M:4/4] x8 | x8 | x8 | x8 | x8 | x8 | %43
 x8 | x8 | x8 | x8 | x6 C2 | x8 | x8 | x8 | x4 E2 F2 | x4 B,2 x2 | EFED CD E2 | x2 DC x4 :: x8 | %56
 x8 | x8 | x8 | x2 z2 F2 x2 | E2 E2 DAGF | GE x6 | x8 | x8 | x8 | x8 | x8 | x8 | x8 | F2 C2 F2 C2 | %70
 x8 | x2 B^A x4 | B,2 B,2 B,2 B,2 | G2 =C2 x4 | x8 | D2 C2 x4 ::[M:3/4] x6 | x6 | x6 | x6 | x6 | %81
 x6 | x6 | x6 | B,6 | B,6 | x6 | E2 D2 C2 | E2 D2 C2 | E2 D2 C2 | F4 E2 | F4 A2 | D4 F2 | B,4 E2 | %94
 C2 E4 | F2 D2 x2 | [EB]6 | E6 | [EA]6 | [EA]6 | F2 D4 | D2 C4 | x6 :: x6 | x6 | [DF]6 | [DF]6 | %107
 [DF]6 | x6 | x6 | B,6 | C2 ^B,2 =B,2 | B,6 | A,2 B,2 C2 | B,2 A,2 B,2 | F4 ^E2 | x6 | ^D6 | %118
 F2 E2 ^D2 | x6 | C6 | E6 | F2 D2 E2 | F6 | F2 C2 E2 | D4 E2 | F2 G2 C2 | F2 G2 C2 | x6 | %129
 F2 C2 D2 | E2 ^D2 E2 | F6 | F6 | G2 C4 | D2 E2 F2 | D2 C2 B,2 | x6 | ^A,4 B,2- | B,2 B,2 ^A,2 | %139
 x6 :| %140
V:5
 x6 | x6 | x6 | x6 | x6 | x6 | x6 | x6 | x6 | x6 | x6 | x6 | x6 | x6 | x6 | x6 :: E,2 E,,2 x2 | %17
 x6 | x6 | x6 | x6 | x6 | x6 | x6 | D,2 D,,2 x2 | x6 | x6 | x6 | x6 | x6 | x6 | x6 | x6 | x6 | x6 | %35
 x6 | !fermata!B,,6 ::[M:4/4] x8 | x8 | x8 | x8 | x8 | x8 | x8 | x8 | x8 | x8 | x8 | x8 | x8 | x8 | %51
 x8 | x8 | x8 | x8 :: x8 | x8 | x8 | x8 | x8 | x8 | x8 | x8 | x8 | x8 | x8 | x8 | x8 | x8 | x8 | %70
 x8 | x8 | x8 | x8 | x8 | x8 ::[M:3/4] x6 | x6 | x6 | x6 | x6 | x6 | x6 | x6 | x6 | x6 | x6 | x6 | %88
 x6 | x6 | x6 | x6 | x6 | x6 | x6 | x6 | x6 | x6 | x6 | x6 | x6 | x6 | x6 :: x6 | x6 | x6 | x6 | %107
 x6 | x6 | x6 | x6 | x6 | x6 | x6 | x6 | x6 | x6 | x6 | x6 | x6 | x6 | x6 | x6 | x6 | x6 | x6 | %126
 x6 | x6 | x6 | x6 | x6 | x6 | x6 | x6 | x6 | x6 | x6 | x6 | x6 | x6 :| %140

